src/section/s3/1.svg

<svg width="68" height="60" viewBox="0 0 68 60" fill="none" xmlns="http://www.w3.org/2000/svg">
<path d="M66.57 28.0838L58.7033 21.2305V6.8397C59.4927 6.69851 60.0928 6.00884 60.0928 5.17254C60.0928 4.23307 59.3359 3.47823 58.406 3.47823H46.36C45.4246 3.47823 44.6731 4.2385 44.6731 5.17254C44.6731 6.00884 45.2732 6.69851 46.0626 6.8397V10.2175L34.806 0.415432C34.1734 -0.138477 33.2273 -0.138477 32.5947 0.415432L0.830701 28.0838C0.127838 28.6974 0.052145 29.7672 0.663095 30.4786C1.27404 31.1846 2.33915 31.2606 3.04742 30.647L8.70276 25.7215V55.9639H5.93997C5.00462 55.9639 4.2531 56.7242 4.2531 57.6582C4.2531 58.5977 5.01003 59.3525 5.93997 59.3525H61.4715C62.4069 59.3525 63.1584 58.5922 63.1584 57.6582C63.1584 56.7187 62.4015 55.9639 61.4715 55.9639H58.7087V25.7215L64.3641 30.647C64.6831 30.9239 65.0778 31.0597 65.4724 31.0597C65.9428 31.0597 66.4132 30.8587 66.7484 30.4732C67.3539 29.7672 67.2783 28.6974 66.57 28.0838ZM55.3242 55.9096H12.0765V22.7836L33.703 3.94525L55.3242 22.7782V55.9096ZM55.3242 18.2872L49.4364 13.1608V6.86685H55.3242V18.2872ZM31.3566 22.6587V24.8092C28.3775 25.1947 26.1229 26.851 25.685 29.0938C24.8956 33.1558 28.2099 34.9262 29.9941 35.8765C30.6861 36.2458 34.66 37.7772 35.8495 38.2334C36.1685 38.3583 37.7256 39.0805 37.0822 40.9432C36.801 41.7632 35.5846 42.4528 34.0599 42.6538C32.1784 42.9036 29.4642 42.4311 28.0153 40.2806C27.4908 39.5041 26.4419 39.3032 25.6688 39.8245C24.8956 40.3512 24.6956 41.4048 25.2146 42.1813C26.5717 44.2015 28.8209 45.5428 31.3566 45.9664V48.6925C31.3566 49.6319 32.1135 50.3868 33.0434 50.3868C33.9788 50.3868 34.7303 49.6265 34.7303 48.6925V45.9772C37.5039 45.5482 39.5638 44.0928 40.2667 42.051C41.5427 38.3528 39.0556 35.8494 37.0606 35.0619C34.6762 34.1442 31.9675 33.0744 31.5728 32.8735C29.0858 31.5484 28.7776 30.8642 28.9993 29.7401C29.129 29.083 30.3942 28.1109 32.7082 28.1109C35.7738 28.1109 37.2714 30.1582 37.3471 30.2723C37.8716 31.038 38.915 31.2389 39.6828 30.7176C40.4559 30.1908 40.6614 29.1373 40.1369 28.3607C40.0504 28.2358 38.2933 25.6889 34.7303 24.9341V22.6533C34.7303 21.7138 33.9734 20.959 33.0434 20.959C32.1135 20.9644 31.3566 21.7192 31.3566 22.6587Z" fill="black"/>
</svg>

<?xml version="1.0" encoding="utf-8"?>
<!-- Generator: Adobe Illustrator 27.6.1, SVG Export Plug-In . SVG Version: 6.00 Build 0)  -->
<svg version="1.1" id="圖層_1" xmlns="http://www.w3.org/2000/svg" xmlns:xlink="http://www.w3.org/1999/xlink" x="0px" y="0px"
	 viewBox="0 0 68 60" style="enable-background:new 0 0 68 60;" xml:space="preserve">
<style type="text/css">
	.st0{fill:#FFFFFF;}
</style>
<path class="st0" d="M66.6,28.1l-7.9-6.9V6.8c0.8-0.1,1.4-0.8,1.4-1.7c0-0.9-0.8-1.7-1.7-1.7h-12c-0.9,0-1.7,0.8-1.7,1.7
	c0,0.8,0.6,1.5,1.4,1.7v3.4L34.8,0.4c-0.6-0.6-1.6-0.6-2.2,0L0.8,28.1c-0.7,0.6-0.8,1.7-0.2,2.4c0.6,0.7,1.7,0.8,2.4,0.2l5.7-4.9V56
	H5.9c-0.9,0-1.7,0.8-1.7,1.7c0,0.9,0.8,1.7,1.7,1.7h55.5c0.9,0,1.7-0.8,1.7-1.7c0-0.9-0.8-1.7-1.7-1.7h-2.8V25.7l5.7,4.9
	c0.3,0.3,0.7,0.4,1.1,0.4c0.5,0,0.9-0.2,1.3-0.6C67.4,29.8,67.3,28.7,66.6,28.1z M55.3,55.9H12.1V22.8L33.7,3.9l21.6,18.8V55.9z
	 M55.3,18.3l-5.9-5.1V6.9h5.9V18.3z M31.4,22.7v2.2c-3,0.4-5.2,2-5.7,4.3c-0.8,4.1,2.5,5.8,4.3,6.8c0.7,0.4,4.7,1.9,5.9,2.4
	c0.3,0.1,1.9,0.8,1.2,2.7c-0.3,0.8-1.5,1.5-3,1.7c-1.9,0.2-4.6-0.2-6-2.4c-0.5-0.8-1.6-1-2.3-0.5c-0.8,0.5-1,1.6-0.5,2.4
	c1.4,2,3.6,3.4,6.1,3.8v2.7c0,0.9,0.8,1.7,1.7,1.7c0.9,0,1.7-0.8,1.7-1.7V46c2.8-0.4,4.8-1.9,5.5-3.9c1.3-3.7-1.2-6.2-3.2-7
	c-2.4-0.9-5.1-2-5.5-2.2c-2.5-1.3-2.8-2-2.6-3.1c0.1-0.7,1.4-1.6,3.7-1.6c3.1,0,4.6,2,4.6,2.2c0.5,0.8,1.6,1,2.3,0.4
	c0.8-0.5,1-1.6,0.5-2.4c-0.1-0.1-1.8-2.7-5.4-3.4v-2.3c0-0.9-0.8-1.7-1.7-1.7C32.1,21,31.4,21.7,31.4,22.7z"/>
</svg>
